X:48
T:GB/6a/48 Come All You Little Streamers
%%VWML:GB-6a-48-0
F:http://www.vwml.org/record/GB/6a/48
C:Transcribed by Simon Furey and Lewis Jones P:Noted by FW J(ekyll)
L:1/8
Q:1/4=112
M:6/8
I:linebreak $
K:C
"^Moderato" B2 d | d2 c AGF | A2 G E2 F | G2 G A2 B | c3- c2 |: c | G2 G !fermata!e2 d | d3 ede |$ c2 c E2 F |1 G3- G2 :|2 G3 B2 d || d2 c AGF | A2 G E2 F | G2 G A2 B | c3 |]

